src/plugins/contrib/SpellChecker/rc/svg/en_US.svg

<svg width="32" height="32" version="1.1" viewBox="0 0 8.467 8.467" xmlns="http://www.w3.org/2000/svg">
  <g fill-rule="evenodd">
    <path transform="translate(0 -288.5)" d="M0 289.592h8.467v5.292H0z" fill="#e70000" style="paint-order:fill markers stroke"/>
    <path transform="translate(0 -288.5)" d="M0 289.592h3.969v2.91H0z" fill="#0049b6" style="paint-order:fill markers stroke"/>
    <path transform="translate(0 -288.5)" d="m3.969 290.1h4.498v0.265h-4.498zm0 1.587h4.483v0.265h-4.483zm-3.969 1.588h8.459v0.265h-8.459zm0 0.794h8.467v0.265h-8.467zm0.265-4.234h0.265v0.265h-0.265zm1.322 7.938h3.426v0.265h-3.426zm2.382-6.879h4.498v0.265h-4.498zm-3.175-1.059h0.265v0.265h-0.265zm0.529 0h0.265v0.265h-0.265zm0.529 0h0.265v0.265h-0.265zm0.529 0h0.265v0.265h-0.265zm0.529 0h0.265v0.265h-0.265zm-2.381 0.529h0.265v0.265h-0.265zm0.529 0h0.265v0.265h-0.265zm0.53 0h0.265v0.265h-0.265zm0.529 0h0.265v0.265h-0.265zm0.529 0h0.265v0.265h-0.265zm-2.381 0.53h0.265v0.265h-0.265zm0.529 0h0.265v0.265h-0.265zm0.529 0h0.265v0.265h-0.265zm0.529 0h0.265v0.265h-0.265zm0.529 0h0.265v0.265h-0.265zm0.529 0h0.265v0.265h-0.265zm-2.381 0.529h0.265v0.265h-0.265zm0.529 0h0.265v0.265h-0.265zm0.53 0h0.265v0.265h-0.265zm0.529 0h0.265v0.265h-0.265zm0.529 0h0.265v0.265h-0.265zm-2.381 0.529h0.265v0.265h-0.265zm0.529 0h0.265v0.265h-0.265zm0.529 0h0.265v0.265h-0.265zm0.529 0h0.265v0.265h-0.265zm0.529 0h0.265v0.265h-0.265zm0.529 0h0.265v0.265h-0.265zm-2.91 0.529h8.467v0.265h-8.467zm3.44-2.646h0.265v0.265h-0.265zm-0.265 0.529h0.265v0.265h-0.265zm0.265 0.53h0.265v0.265h-0.265zm-0.265 0.529h0.265v0.265h-0.265zm0.265 0.529h0.265v0.265h-0.265z" fill="#fff" style="paint-order:fill markers stroke"/>
  </g>
</svg>

<svg xmlns="http://www.w3.org/2000/svg" xmlns:xlink="http://www.w3.org/1999/xlink" width="32" height="32" viewBox="0 0 8.467 8.467">
    <g transform="matrix(2 0 0 2 .53 -585.534)" style="stroke-width:.49999979">
        <path style="opacity:1;fill:#53523e;fill-opacity:1;fill-rule:evenodd;stroke:none;stroke-width:0;stroke-linecap:round;stroke-linejoin:miter;stroke-miterlimit:4;stroke-dasharray:none;stroke-dashoffset:0;stroke-opacity:1;paint-order:fill markers stroke" d="M-4.762 292.767h4.233V297h-4.233z"/>
        <image width="4.233" height="2.91" preserveAspectRatio="none" style="stroke-width:.49999979;image-rendering:optimizeSpeed" xlink:href="data:image/png;base64,iVBORw0KGgoAAAANSUhEUgAAABAAAAALCAIAAAD5gJpuAAAABGdBTUEAAK/INwWK6QAAABl0RVh0 U29mdHdhcmUAQWRvYmUgSW1hZ2VSZWFkeXHJZTwAAAHzSURBVHjaYkxOP8IAB//+Mfz7w8Dwi4Hh P5CcJb/n/7evb16/APL/gRFQDiAAw3JuAgAIBEDQ/iswEERjGzBQLEru97ll0g0+3HvqMn1Spqlq GsZMsZsIe0SICA5gt5a/AGIEarCPtFh+6N/ffwxA9OvP/7//QYwff/6fZahmePeB4dNHhi+fGb59 Y4zyvHHmCEAAAW3YDzQYaJJ93a+vX79aVf58//69fvEPlpIfnz59+vDhw7t37968efP3b/SXL59O njwIEEAsDP+YgY53b2b89++/awvLn98MDi2cVxl+/vl6mituCtBghi9f/v/48e/XL86krj9XzwEE EENy8g6gu22rfn78+NGs5Ofr16+ZC58+fvyYwX8rxOxXr169fPny+fPn1//93bJlBUAAsQADZMEB xj9/GBxb2P/9+S/R8u3vzxuyaX8ZHv3j8/YGms3w8ycQARmi2eE37t4ACCDGR4/uSkrKAS35B3TT ////wADOgLOBIaXIyjBlwxKAAGKRXjCB0SOEaeu+/y9fMnz4AHQxCP348R/o+l+//sMZQBNLEvif 3AcIIMZbty7Ly6t9ZmXl+fXj/38GoHH/UcGfP79//BBiYHjy9+8/oUkNAAHEwt1V/vI/KBY/QSIS FqM/GBg+MzB8A6PfYC5EFiDAABqgW776MP0rAAAAAElFTkSuQmCC" x="-4.762" y="293.296"/>
    </g>
    <path style="opacity:1;fill:#e70000;fill-opacity:1;fill-rule:evenodd;stroke:none;stroke-width:0;stroke-linecap:round;stroke-linejoin:miter;stroke-miterlimit:4;stroke-dasharray:none;stroke-dashoffset:0;stroke-opacity:1;paint-order:fill markers stroke" d="M0 289.592h8.467v5.292H0z" transform="translate(0 -288.533)"/>
    <path style="opacity:1;fill:#0049b6;fill-opacity:1;fill-rule:evenodd;stroke:none;stroke-width:0;stroke-linecap:round;stroke-linejoin:miter;stroke-miterlimit:4;stroke-dasharray:none;stroke-dashoffset:0;stroke-opacity:1;paint-order:fill markers stroke" d="M0 289.592h3.969v2.91H0z" transform="translate(0 -288.533)"/>
    <path style="opacity:1;fill:#fff;fill-opacity:1;fill-rule:evenodd;stroke:none;stroke-width:0;stroke-linecap:round;stroke-linejoin:miter;stroke-miterlimit:4;stroke-dasharray:none;stroke-dashoffset:0;stroke-opacity:1;paint-order:fill markers stroke" d="M3.969 290.121h4.498v.265H3.969zM3.969 291.708h4.483v.265H3.969zM0 293.296h8.459v.265H0zM0 294.09h8.467v.265H0zM.265 289.856H.53v.265H.265zM1.587 297.794h3.426v.265H1.587zM3.969 290.915h4.498v.265H3.969zM.794 289.856h.265v.265H.794zM1.323 289.856h.265v.265h-.265zM1.852 289.856h.265v.265h-.265zM2.381 289.856h.265v.265h-.265zM2.91 289.856h.265v.265H2.91zM.529 290.385h.265v.265H.529zM1.058 290.385h.265v.265h-.265zM1.588 290.385h.265v.265h-.265zM2.117 290.385h.265v.265h-.265zM2.646 290.385h.265v.265h-.265zM.265 290.915H.53v.265H.265zM.794 290.915h.265v.265H.794zM1.323 290.915h.265v.265h-.265zM1.852 290.915h.265v.265h-.265zM2.381 290.915h.265v.265h-.265zM2.91 290.915h.265v.265H2.91zM.529 291.444h.265v.265H.529zM1.058 291.444h.265v.265h-.265zM1.588 291.444h.265v.265h-.265zM2.117 291.444h.265v.265h-.265zM2.646 291.444h.265v.265h-.265zM.265 291.973H.53v.265H.265zM.794 291.973h.265v.265H.794zM1.323 291.973h.265v.265h-.265zM1.852 291.973h.265v.265h-.265zM2.381 291.973h.265v.265h-.265zM2.91 291.973h.265v.265H2.91zM0 292.502h8.467v.265H0zM3.44 289.856h.265v.265H3.44zM3.175 290.385h.265v.265h-.265zM3.44 290.915h.265v.265H3.44zM3.175 291.444h.265v.265h-.265zM3.44 291.973h.265v.265H3.44z" transform="translate(0 -288.533)"/>
</svg>
